X: 34560
T: Rip The Calico
R: reel
M: 4/4
K: Gmajor
GE (3EEE cABG|AGEG AcBA|GE (3EEE cABG|(3ABc GE D3F|
GE (3EEE cABG|AGEG ABcA|~d2cA GAF|GEDE G3A||
B~d3 cABG|AGEG AGA2|B~d3 cABG|(3ABc GE D3A|
B~d3 cABG|AGEG AGA2|(3Bcd (3Bcd cABG|AGEA cABA||
G2BG ~G2BG|AGEG AcBA|G2BG ~G2BG|(3ABc GE D3F|
G2BG ~G2BG|AGEG ABcA|~d2cA BGAF|GEDE GcBA||

